logo/tour.svg

<svg width="48" height="15" viewBox="0 0 48 15" fill="none" xmlns="http://www.w3.org/2000/svg">
<path d="M11.0404 2.17799H6.77479V14.0087H5.03389V2.17799H0.777344V0.737853H11.0404V2.17799ZM22.9623 7.80163C22.9623 9.102 22.7435 10.2383 22.306 11.2105C21.8685 12.1766 21.2488 12.915 20.4466 13.4254C19.6446 13.9357 18.7088 14.191 17.6393 14.191C16.5942 14.191 15.6676 13.9357 14.8594 13.4254C14.0513 12.9088 13.4224 12.1766 12.9727 11.2288C12.5291 10.2747 12.3013 9.17185 12.2891 7.92017V6.96311C12.2891 5.68709 12.5109 4.55993 12.9545 3.58164C13.398 2.60328 14.0239 1.85591 14.8321 1.33939C15.6463 0.816875 16.576 0.555542 17.6211 0.555542C18.6845 0.555542 19.6203 0.813842 20.4284 1.33029C21.2426 1.84074 21.8685 2.58508 22.306 3.56337C22.7435 4.53559 22.9623 5.66881 22.9623 6.96311V7.80163ZM21.2214 6.94491C21.2214 5.37108 20.9054 4.16498 20.2735 3.32638C19.6415 2.48179 18.7574 2.05945 17.6211 2.05945C16.5152 2.05945 15.6432 2.48179 15.0052 3.32638C14.3733 4.16498 14.0482 5.33164 14.03 6.82638V7.80163C14.03 9.32686 14.349 10.5269 14.987 11.4019C15.6311 12.2708 16.5152 12.7053 17.6393 12.7053C18.7696 12.7053 19.6446 12.2952 20.2643 11.4748C20.8841 10.6485 21.2032 9.46662 21.2214 7.92927V6.94491ZM34.9297 0.737853V9.76132C34.9237 11.013 34.5287 12.0369 33.7449 12.8329C32.9671 13.6289 31.9098 14.0755 30.5729 14.1727L30.1081 14.191C28.6559 14.191 27.4983 13.7991 26.6354 13.0152C25.7726 12.2313 25.3351 11.1528 25.3229 9.77952V0.737853H27.0547V9.72484C27.0547 10.6849 27.319 11.4323 27.8477 11.967C28.3763 12.4957 29.1298 12.76 30.1081 12.76C31.0985 12.76 31.8551 12.4957 32.3776 11.967C32.9062 11.4384 33.1706 10.694 33.1706 9.73394V0.737853H34.9297ZM42.5586 8.64023H39.4415V14.0087H37.6824V0.737853H42.0756C43.5704 0.737853 44.7188 1.07813 45.5209 1.75869C46.3291 2.43924 46.7331 3.42967 46.7331 4.73003C46.7331 5.55642 46.5083 6.27649 46.0586 6.89023C45.6151 7.5039 44.9953 7.96271 44.1993 8.26651L47.3165 13.8993V14.0087H45.4388L42.5586 8.64023ZM39.4415 7.2092H42.1302C42.9992 7.2092 43.6888 6.98442 44.1993 6.53471C44.7157 6.08508 44.974 5.48354 44.974 4.73003C44.974 3.90971 44.7279 3.2808 44.2357 2.8433C43.7496 2.4058 43.0447 2.18405 42.1211 2.17799H39.4415V7.2092Z" fill="#275553"/>
</svg>

<svg xmlns="http://www.w3.org/2000/svg" width="48" height="15" fill="none"><path fill="#275553" d="M11.04 2.178H6.775v11.83H5.034V2.179H.777V.738H11.04v1.44Zm11.922 5.624c0 1.3-.218 2.436-.656 3.409-.438.966-1.057 1.704-1.86 2.214-.801.51-1.737.766-2.807.766-1.045 0-1.971-.255-2.78-.766-.808-.516-1.437-1.248-1.886-2.196-.444-.954-.672-2.057-.684-3.309v-.957c0-1.276.222-2.403.665-3.381.444-.979 1.07-1.726 1.878-2.243.814-.522 1.744-.783 2.79-.783 1.063 0 1.998.258 2.806.774.815.51 1.44 1.255 1.878 2.233.438.973.656 2.106.656 3.4v.839Zm-1.74-.857c0-1.574-.317-2.78-.949-3.619-.631-.844-1.516-1.267-2.652-1.267-1.106 0-1.978.423-2.616 1.267-.632.839-.957 2.006-.975 3.5v.976c0 1.525.319 2.725.957 3.6.644.869 1.528 1.303 2.652 1.303 1.13 0 2.006-.41 2.625-1.23.62-.826.94-2.008.957-3.546v-.984ZM34.93.738V9.76c-.006 1.252-.401 2.276-1.185 3.072-.778.796-1.835 1.242-3.172 1.34l-.465.018c-1.452 0-2.61-.392-3.473-1.176-.862-.784-1.3-1.862-1.312-3.235V.738h1.732v8.987c0 .96.264 1.707.793 2.242.528.529 1.282.793 2.26.793.99 0 1.747-.264 2.27-.793.528-.529.793-1.273.793-2.233V.738h1.759Zm7.629 7.902h-3.117v5.369h-1.76V.738h4.394c1.494 0 2.643.34 3.445 1.02.808.681 1.212 1.672 1.212 2.972 0 .826-.225 1.546-.674 2.16-.444.614-1.064 1.073-1.86 1.377l3.117 5.632v.11H45.44l-2.88-5.369Zm-3.117-1.43h2.688c.87 0 1.559-.226 2.07-.675.516-.45.774-1.051.774-1.805 0-.82-.246-1.45-.738-1.887-.486-.437-1.191-.659-2.115-.665h-2.68v5.031Z"/></svg>
